remix/System/spam-3-fill.svg

<svg viewBox="0 0 24 24" fill="currentColor" xmlns="http://www.w3.org/2000/svg"><path d="M15.936 2.50098L21.501 8.06595V15.936L15.936 21.501H8.06595L2.50098 15.936V8.06595L8.06595 2.50098H15.936ZM8.00024 11.0002V13.0002H16.0002V11.0002H8.00024Z"/></svg>

<svg viewBox="0 0 24 24" xmlns="http://www.w3.org/2000/svg"><path fill="none" d="M0 0h24v24H0Z"/><path d="M15.936 2.5L21.5 8.067v7.87l-5.564 5.56H8.06l-5.57-5.564V8.06l5.56-5.57h7.87ZM8 11v2h8v-2H8Z"/></svg>
